svgs/sharp-light/face-viewfinder.svg

<svg xmlns="http://www.w3.org/2000/svg" viewBox="0 0 512 512"><!--! Font Awesome Pro 6.4.0 by @fontawesome - https://fontawesome.com License - https://fontawesome.com/license (Commercial License) Copyright 2023 Fonticons, Inc. --><path d="M16 0H0V16 144v16H32V144 32H144h16V0H144 16zM496 0H368 352V32h16H480V144v16h32V144 16 0H496zM0 512H16 144h16V480H144 32V368 352H0v16V496v16zm496 0h16V496 368 352H480v16V480H368 352v32h16H496zM240 216a24 24 0 1 0 -48 0 24 24 0 1 0 48 0zm56 24a24 24 0 1 0 0-48 24 24 0 1 0 0 48zM256 128a128 128 0 1 1 0 256 128 128 0 1 1 0-256zm0 288a160 160 0 1 0 0-320 160 160 0 1 0 0 320zm0-112c-21.6 0-39.8-14.2-45.9-33.8l-30.6 9.4C189.6 312.2 220 336 256 336s66.4-23.8 76.5-56.4l-30.6-9.4c-6 19.6-24.3 33.8-45.9 33.8z"/></svg>

<svg xmlns="http://www.w3.org/2000/svg" viewBox="0 0 512 512"><!--! Font Awesome Pro 6.6.0 by @fontawesome - https://fontawesome.com License - https://fontawesome.com/license (Commercial License) Copyright 2024 Fonticons, Inc. --><path d="M16 0L0 0 0 16 0 144l0 16 32 0 0-16L32 32l112 0 16 0 0-32L144 0 16 0zM496 0L368 0 352 0l0 32 16 0 112 0 0 112 0 16 32 0 0-16 0-128 0-16L496 0zM0 512l16 0 128 0 16 0 0-32-16 0L32 480l0-112 0-16L0 352l0 16L0 496l0 16zm496 0l16 0 0-16 0-128 0-16-32 0 0 16 0 112-112 0-16 0 0 32 16 0 128 0zM240 216a24 24 0 1 0 -48 0 24 24 0 1 0 48 0zm56 24a24 24 0 1 0 0-48 24 24 0 1 0 0 48zM256 128a128 128 0 1 1 0 256 128 128 0 1 1 0-256zm0 288a160 160 0 1 0 0-320 160 160 0 1 0 0 320zm0-112c-21.6 0-39.8-14.2-45.9-33.8l-30.6 9.4C189.6 312.2 220 336 256 336s66.4-23.8 76.5-56.4l-30.6-9.4c-6 19.6-24.3 33.8-45.9 33.8z"/></svg>
